WebBeautyBook/ClientApp/src/assets/svg/services.svg

<svg viewBox="0 0 24 24" fill="#1C274C" xmlns="http://www.w3.org/2000/svg">
    <path d="M8.42229 20.6181C10.1779 21.5395 11.0557 22.0001 12 22.0001V12.0001L2.63802 7.07275C2.62423 7.09491 2.6107 7.11727 2.5974 7.13986C2 8.15436 2 9.41678 2 11.9416V12.0586C2 14.5834 2 15.8459 2.5974 16.8604C3.19479 17.8749 4.27063 18.4395 6.42229 19.5686L8.42229 20.6181Z"></path>
    <path opacity="0.7" d="M17.5774 4.43152L15.5774 3.38197C13.8218 2.46066 12.944 2 11.9997 2C11.0554 2 10.1776 2.46066 8.42197 3.38197L6.42197 4.43152C4.31821 5.53552 3.24291 6.09982 2.6377 7.07264L11.9997 12L21.3617 7.07264C20.7564 6.09982 19.6811 5.53552 17.5774 4.43152Z"></path>
    <path opacity="0.5" d="M21.4026 7.13986C21.3893 7.11727 21.3758 7.09491 21.362 7.07275L12 12.0001V22.0001C12.9443 22.0001 13.8221 21.5395 15.5777 20.6181L17.5777 19.5686C19.7294 18.4395 20.8052 17.8749 21.4026 16.8604C22 15.8459 22 14.5834 22 12.0586V11.9416C22 9.41678 22 8.15436 21.4026 7.13986Z"></path>
</svg>

<svg xmlns="http://www.w3.org/2000/svg" viewBox="0 0 24 24" fill="#1C274C" xmlns:v="https://vecta.io/nano"><path d="M8.422 20.618C10.178 21.54 11.056 22 12 22V12L2.638 7.073l-.041.067C2 8.154 2 9.417 2 11.942v.117c0 2.525 0 3.787.597 4.802s1.673 1.579 3.825 2.708l2 1.049z"/><path opacity=".7" d="M17.577 4.432l-2-1.05C13.822 2.461 12.944 2 12 2s-1.822.461-3.578 1.382l-2 1.05C4.318 5.536 3.243 6.1 2.638 7.073L12 12l9.362-4.927c-.605-.973-1.681-1.537-3.784-2.641z"/><path opacity=".5" d="M21.403 7.14l-.041-.067L12 12v10c.944 0 1.822-.461 3.578-1.382l2-1.049c2.152-1.129 3.227-1.694 3.825-2.708S22 14.583 22 12.059v-.117c0-2.525 0-3.787-.597-4.802z"/></svg>
